X:302
T: Two Halfpence
R: slip-ig
M: 9/8
L: 1/8
K: D
d | AFD AFD A2d | AFD DEF G2B | AFD AFD d2f | efe E2F G2 :|
g | fef d2d d2g | fef def g2a | fef d2d d2f | efe E2F G2 ||
g | fef d2d d2g | fef def gag | fef agf fed | efe E2F GA |]

